icons/line/user-group.svg

<svg width="24" height="24" viewBox="0 0 24 24" fill="none" xmlns="http://www.w3.org/2000/svg">
<path fill-rule="evenodd" clip-rule="evenodd" d="M10 9C10 7.89543 10.8954 7 12 7C13.1046 7 14 7.89543 14 9C14 10.1046 13.1046 11 12 11C10.8954 11 10 10.1046 10 9ZM9.09447 11.7492C8.41606 11.0324 8 10.0648 8 9C8 6.79086 9.79086 5 12 5C14.2091 5 16 6.79086 16 9C16 10.0648 15.5839 11.0324 14.9055 11.7492C15.1023 11.8583 15.2924 11.9782 15.4748 12.108C15.7511 11.5944 16.1364 11.148 16.5997 10.7999C16.2231 10.2985 16 9.67533 16 9C16 7.34315 17.3431 6 19 6C20.6569 6 22 7.34315 22 9C22 9.67533 21.7769 10.2985 21.4003 10.7999C22.3717 11.5297 23 12.6915 23 14C23 14.4657 22.92 14.9149 22.7721 15.3332C22.6309 15.7328 22.2531 16 21.8293 16H17.917C17.9716 16.3252 18 16.6593 18 17C18 17.4097 17.9588 17.8107 17.88 18.1989C17.7854 18.665 17.3756 19 16.9 19H7.10002C6.62442 19 6.21462 18.665 6.12 18.1989C6.0412 17.8107 6 17.4097 6 17C6 16.6593 6.0284 16.3252 6.08296 16H2.17071C1.74689 16 1.3691 15.7328 1.22787 15.3332C1.08001 14.9149 1 14.4657 1 14C1 12.6915 1.62832 11.5297 2.59972 10.7999C2.22314 10.2985 2 9.67533 2 9C2 7.34315 3.34315 6 5 6C6.65685 6 8 7.34315 8 9C8 9.67533 7.77686 10.2985 7.40028 10.7999C7.86361 11.148 8.24888 11.5944 8.52516 12.108C8.70762 11.9782 8.89765 11.8583 9.09447 11.7492ZM8.81288 14.5826C9.54341 13.6209 10.6992 13 12 13C13.3008 13 14.4566 13.6209 15.1871 14.5826C15.1955 14.5943 15.2042 14.6059 15.2131 14.6172C15.7075 15.2828 16 16.1072 16 17H8C8 16.1072 8.29248 15.2828 8.78685 14.6172C8.79577 14.6059 8.80445 14.5943 8.81288 14.5826ZM6.97958 13.7131C6.84044 12.7445 6.00716 12 5 12C3.89543 12 3 12.8954 3 14H6.80269C6.85903 13.9026 6.91803 13.807 6.97958 13.7131ZM17.1973 14H21C21 12.8954 20.1046 12 19 12C17.9928 12 17.1596 12.7445 17.0204 13.7131C17.082 13.807 17.141 13.9026 17.1973 14ZM6 9C6 9.55228 5.55228 10 5 10C4.44772 10 4 9.55228 4 9C4 8.44772 4.44772 8 5 8C5.55228 8 6 8.44772 6 9ZM20 9C20 9.55228 19.5523 10 19 10C18.4477 10 18 9.55228 18 9C18 8.44772 18.4477 8 19 8C19.5523 8 20 8.44772 20 9Z" fill="currentColor"/>
</svg>

<svg width="24" height="24" fill="none" xmlns="http://www.w3.org/2000/svg"><path fill-rule="evenodd" clip-rule="evenodd" d="M10 9a2 2 0 114 0 2 2 0 01-4 0zm-.906 2.75a4 4 0 115.811 0c.197.108.387.228.57.358A4.02 4.02 0 0116.6 10.8a3 3 0 114.8 0 3.994 3.994 0 011.372 4.533 1 1 0 01-.943.667h-3.912a6.036 6.036 0 01-.037 2.199 1 1 0 01-.98.801H7.1a1 1 0 01-.98-.801A6.022 6.022 0 016.083 16H2.171a1 1 0 01-.943-.667A3.994 3.994 0 012.6 10.8a3 3 0 114.8 0 4.02 4.02 0 011.125 1.308c.183-.13.373-.25.57-.359zm-.281 2.833A3.994 3.994 0 0112 13a3.993 3.993 0 013.213 1.617c.495.666.787 1.49.787 2.383H8a3.982 3.982 0 01.813-2.417zm-1.833-.87A2 2 0 003 14h3.803c.056-.097.115-.193.177-.287zM17.197 14H21a2 2 0 00-3.98-.287c.062.094.121.19.177.287zM6 9a1 1 0 11-2 0 1 1 0 012 0zm14 0a1 1 0 11-2 0 1 1 0 012 0z" fill="currentColor"/></svg>
